usr/share/icons/biglinux-icons-material-dark/symbolic/actions/roll.svg

<svg xmlns="http://www.w3.org/2000/svg" viewBox="0 0 16 16">
<defs id="defs3051">
<style id="current-color-scheme" type="text/css">
.ColorScheme-Contrast{color:#dedede}
</style>
</defs>
<path d="M2 2v12h12V2zm1 1h10v10H3zm2 1a1 1 0 0 0-1 1 1 1 0 0 0 1 1 1 1 0 0 0 1-1 1 1 0 0 0-1-1m6 0a1 1 0 0 0-1 1 1 1 0 0 0 1 1 1 1 0 0 0 1-1 1 1 0 0 0-1-1M8 7a1 1 0 0 0-1 1 1 1 0 0 0 1 1 1 1 0 0 0 1-1 1 1 0 0 0-1-1m-3 3a1 1 0 0 0-1 1 1 1 0 0 0 1 1 1 1 0 0 0 1-1 1 1 0 0 0-1-1m6 0a1 1 0 0 0-1 1 1 1 0 0 0 1 1 1 1 0 0 0 1-1 1 1 0 0 0-1-1" class="ColorScheme-Contrast" style="fill:currentColor;fill-opacity:1;stroke:none"/>
</svg>

<svg xmlns="http://www.w3.org/2000/svg" viewBox="0 0 16 16">
  <defs id="defs3051">
    <style type="text/css" id="current-color-scheme">
      .ColorScheme-Text {
        color:#dedede;
      }
      </style>
  </defs>
 <path 
     style="fill:currentColor;fill-opacity:1;stroke:none" 
     d="M 2 2 L 2 14 L 14 14 L 14 2 L 2 2 z M 3 3 L 13 3 L 13 13 L 3 13 L 3 3 z M 5 4 A 1 1 0 0 0 4 5 A 1 1 0 0 0 5 6 A 1 1 0 0 0 6 5 A 1 1 0 0 0 5 4 z M 11 4 A 1 1 0 0 0 10 5 A 1 1 0 0 0 11 6 A 1 1 0 0 0 12 5 A 1 1 0 0 0 11 4 z M 8 7 A 1 1 0 0 0 7 8 A 1 1 0 0 0 8 9 A 1 1 0 0 0 9 8 A 1 1 0 0 0 8 7 z M 5 10 A 1 1 0 0 0 4 11 A 1 1 0 0 0 5 12 A 1 1 0 0 0 6 11 A 1 1 0 0 0 5 10 z M 11 10 A 1 1 0 0 0 10 11 A 1 1 0 0 0 11 12 A 1 1 0 0 0 12 11 A 1 1 0 0 0 11 10 z "
     class="ColorScheme-Text"/>
</svg>
